nalufx-ui/ui/assets/cloud.svg

<svg fill="none" height="43" viewBox="0 0 59 43" width="59" xmlns="http://www.w3.org/2000/svg"><path d="m14.3469 43c-3.9777 0-7.36332-1.3997-10.15675-4.1991-2.79343-2.7993-4.19015-6.1921-4.19015-10.1783 0-3.5841 1.11727-6.6636 3.3518-9.2383 2.23453-2.5757 5.02796-4.1995 8.3803-4.8714.8947-4.1658 3.0069-7.62628 6.3367-10.38157 3.3298-2.75422 7.1627-4.13133 11.4988-4.13133 5.0505 0 9.3415 1.83615 12.8729 5.50844 3.5305 3.67336 5.2957 8.08586 5.2957 13.23736v1.0739c3.3523.0903 6.0679 1.2664 8.1469 3.5283 2.0779 2.2618 3.1169 4.9381 3.1169 8.0288 0 3.1799-1.1398 5.9121-3.4194 8.1965-2.2796 2.2845-5.006 3.4267-8.1791 3.4267zm0-4.5006h33.0546c1.9663 0 3.6425-.6945 5.0285-2.0834 1.3859-1.3889 2.0789-3.0687 2.0789-5.0392s-.693-3.6502-2.0789-5.0392c-1.386-1.3889-3.0622-2.0834-5.0285-2.0834h-4.1564v-5.5084c0-3.897-1.3189-7.2452-3.9568-10.04453-2.6368-2.80045-5.8771-4.20067-9.7207-4.20067-3.0402 0-5.8004.90732-8.2805 2.72197-2.4813 1.81357-4.1687 4.19853-5.0623 7.15483 3.5314.5375 6.4702 2.0495 8.8163 4.5361 2.3472 2.4854 3.5208 5.5874 3.5208 9.306h-4.4927c0-2.7328-.9612-4.9952-2.8835-6.7872-1.9213-1.791-4.2454-2.6865-6.9723-2.6865-2.727 0-5.02908.9627-6.90639 2.888-1.8773 1.9265-2.81596 4.2561-2.81596 6.9888 0 2.7316.96119 5.0607 2.88355 6.9871 1.92236 1.9265 4.2465 2.8897 6.9723 2.8897z" fill="#defb3a"/></svg>

<svg width="59" height="43" viewBox="0 0 59 43" fill="none" xmlns="http://www.w3.org/2000/svg">
<path d="M14.3469 43C10.3692 43 6.98358 41.6003 4.19015 38.8009C1.39672 36.0016 0 32.6088 0 28.6226C0 25.0385 1.11727 21.959 3.3518 19.3843C5.58633 16.8086 8.37976 15.1848 11.7321 14.5129C12.6268 10.3471 14.739 6.88662 18.0688 4.13133C21.3986 1.37711 25.2315 0 29.5676 0C34.6181 0 38.9091 1.83615 42.4405 5.50844C45.971 9.1818 47.7362 13.5943 47.7362 18.7458V19.8197C51.0885 19.91 53.8041 21.0861 55.8831 23.348C57.961 25.6098 59 28.2861 59 31.3768C59 34.5567 57.8602 37.2889 55.5806 39.5733C53.301 41.8578 50.5746 43 47.4015 43H14.3469ZM14.3469 38.4994H47.4015C49.3678 38.4994 51.044 37.8049 52.43 36.416C53.8159 35.0271 54.5089 33.3473 54.5089 31.3768C54.5089 29.4063 53.8159 27.7266 52.43 26.3376C51.044 24.9487 49.3678 24.2542 47.4015 24.2542H43.2451V18.7458C43.2451 14.8488 41.9262 11.5006 39.2883 8.70127C36.6515 5.90082 33.4112 4.5006 29.5676 4.5006C26.5274 4.5006 23.7672 5.40792 21.2871 7.22257C18.8058 9.03614 17.1184 11.4211 16.2248 14.3774C19.7562 14.9149 22.695 16.4269 25.0411 18.9135C27.3883 21.3989 28.5619 24.5009 28.5619 28.2195H24.0692C24.0692 25.4867 23.108 23.2243 21.1857 21.4323C19.2644 19.6413 16.9403 18.7458 14.2134 18.7458C11.4864 18.7458 9.18432 19.7085 7.30701 21.6338C5.42971 23.5603 4.49105 25.8899 4.49105 28.6226C4.49105 31.3542 5.45224 33.6833 7.3746 35.6097C9.29696 37.5362 11.6211 38.4994 14.3469 38.4994Z" fill="#DEFB3A"/>
</svg>
